src/assets/loading.red.svg

<svg fill="none" height="24" viewBox="0 0 24 24" width="24" xmlns="http://www.w3.org/2000/svg"><g fill="#ff3545" fill-opacity=".5"><path d="m23 12c0 6.0751-4.9249 11-11 11-6.07513 0-11-4.9249-11-11 0-6.07513 4.92487-11 11-11 6.0751 0 11 4.92487 11 11zm-19.8 0c0 4.8601 3.93989 8.8 8.8 8.8 4.8601 0 8.8-3.9399 8.8-8.8 0-4.86011-3.9399-8.8-8.8-8.8-4.86011 0-8.8 3.93989-8.8 8.8z" opacity=".5"/><path d="m12 21.9c0 .6075-.4937 1.1057-1.0982 1.045-1.55678-.1562-3.06679-.6432-4.42699-1.4333-1.67819-.9748-3.06859-2.3763-4.03007-4.0622-.96147-1.6859-1.459801-3.5961-1.44439-5.5368.0154-1.94074.544-3.84283 1.53212-5.51323.98813-1.67039 2.4006-3.04962 4.09406-3.99769 1.69345-.94806 3.60757-1.431208 5.54817-1.40039 1.9405.03081 3.8383.57449 5.5008 1.57584 1.3475.81162 2.5015 1.90049 3.3881 3.18966.3442.50057.1454 1.17317-.3871 1.46572-.5324.29255-1.1959.09301-1.5526-.3988-.6911-.953-1.5687-1.76079-2.5835-2.37202-1.33-.80109-2.8483-1.23603-4.4007-1.26068s-3.08371.36186-4.43848 1.12032c-1.35476.75845-2.48474 1.86183-3.27524 3.19815-.7905 1.33631-1.21338 2.85802-1.2257 4.41052-.01233 1.5526.38633 3.0808 1.15551 4.4295.76919 1.3487 1.88151 2.4699 3.22406 3.2498 1.02437.595 2.15496.9752 3.32295 1.1219.6028.0758 1.0972.5612 1.0972 1.1687z"/></g></svg>

<svg width="24" height="24" viewBox="0 0 24 24" fill="none" xmlns="http://www.w3.org/2000/svg">
<path opacity="0.5" d="M23 12C23 18.0751 18.0751 23 12 23C5.92487 23 1 18.0751 1 12C1 5.92487 5.92487 1 12 1C18.0751 1 23 5.92487 23 12ZM3.2 12C3.2 16.8601 7.13989 20.8 12 20.8C16.8601 20.8 20.8 16.8601 20.8 12C20.8 7.13989 16.8601 3.2 12 3.2C7.13989 3.2 3.2 7.13989 3.2 12Z" fill="#FF3545" fill-opacity="0.5"/>
<path d="M12 21.9C12 22.5075 11.5063 23.0057 10.9018 22.945C9.34502 22.7888 7.83501 22.3018 6.47481 21.5117C4.79662 20.5369 3.40622 19.1354 2.44474 17.4495C1.48327 15.7636 0.984939 13.8534 1.00035 11.9127C1.01575 9.97196 1.54435 8.06987 2.53247 6.39947C3.5206 4.72908 4.93307 3.34985 6.62653 2.40178C8.31998 1.45372 10.2341 0.970572 12.1747 1.00139C14.1152 1.0322 16.013 1.57588 17.6755 2.57723C19.023 3.38885 20.177 4.47772 21.0636 5.76689C21.4078 6.26746 21.209 6.94006 20.6765 7.23261C20.1441 7.52516 19.4806 7.32562 19.1239 6.83381C18.4328 5.88081 17.5552 5.07302 16.5404 4.46179C15.2104 3.6607 13.6921 3.22576 12.1397 3.20111C10.5873 3.17646 9.05599 3.56297 7.70122 4.32143C6.34646 5.07988 5.21648 6.18326 4.42598 7.51958C3.63548 8.85589 3.2126 10.3776 3.20028 11.9301C3.18795 13.4827 3.58661 15.0109 4.35579 16.3596C5.12498 17.7083 6.2373 18.8295 7.57985 19.6094C8.60422 20.2044 9.73481 20.5846 10.9028 20.7313C11.5056 20.8071 12 21.2925 12 21.9Z" fill="#FF3545" fill-opacity="0.5"/>
</svg>
